public/images/showcase-moon.svg

<svg xmlns="http://www.w3.org/2000/svg" width="968" height="967" fill="none" xmlns:v="https://vecta.io/nano"><g opacity=".9"><path d="M375.354 954.791l-.202.051c-74.213-17.025-145.647-51.834-207.432-105.132a487.33 487.33 0 0 1-24.199-22.329C78.554 763.221 35.309 684.513 14.394 600.954c-36.626-147.264-3.738-309.481 103.06-433.153 18.894-22.077 39.404-41.93 61.128-59.612 39.203-31.979 82.346-56.784 127.864-74.567C359.188 12.859 414.861 1.694 470.887.229c116.093-3.132 233.6 35.364 328.475 117.155C904.19 207.712 960.67 333.303 966.581 461.369c.101.101.102.101.102.202.909 19.804.554 39.556-1.012 59.36-5.809 77.143-30.261 153.528-73.859 221.78-12.428 19.601-26.42 38.445-42.031 56.581-29.503 34.151-62.746 63.199-98.564 87.045-111.395 74.061-248.049 97.755-375.863 68.454z" fill="#fd4a26"/><g fill="#e72e27"><path d="M882.378 379.983c-71.839 8.386-116.448 14.246-138.323-44.053-21.824-58.3 25.462-66.383 20.208-118.317s-91.086 4.244-94.067-45.063c-3.031-49.307-33.898-83.862-78.304-82.902-43.8.96-160.601-9.043-121.095-89.419 116.093-3.132 233.6 35.364 328.475 117.155C904.1 207.712 960.58 333.303 966.491 461.369c-7.224-28.24-29.148-87.802-84.113-81.386zM716.246 570.387s-15.913-42.234-45.922-35.111c-30.059 7.174-44.406 40.214-39.001 71.738 5.406 31.575 111.749 11.518 84.923-36.627zM375.395 954.792l-.202.051c-74.213-17.025-145.646-51.834-207.432-105.132a487.31 487.31 0 0 1-24.199-22.328c12.933-8.69 27.382-17.884 42.538-27.432 57.087-35.768 133.723 59.259 178.13 36.98s42.285-127.005 88.459-132.714c46.276-5.708 68.555-16.924 116.347-2.88 47.791 13.994 3.435 90.227 81.841 72.596 78.305-17.632 116.801-64.917 128.774-14.852 6.719 28.24-11.417 84.114-28.493 127.308-111.294 74.011-247.949 97.705-375.763 68.403zM14.394 600.954c-36.626-147.264-3.738-309.482 103.06-433.153 18.894-22.077 39.404-41.93 61.128-59.612 39.203-31.979 82.346-56.784 127.864-74.567 4.8 28.19 8.69 71.788 5.456 135.089-6.719 131.805 94.471 88.408 125.944 143.474 31.423 55.117 39.809 90.177 42.234 136.099 2.526 46.023-66.534-23.895-114.982 25.007s-15.205 99.271-63.855 112.912c-48.549 13.69-159.085 13.74-162.015-30.616-2.981-44.406 78.304-69.867 11.416-129.682s-14.853-76.538-5.456-108.365 47.236-91.035-5.86-100.229c-53.146-9.195-46.63 84.165-77.093 151.76-30.463 67.645 25.108 67.594 11.367 130.137-7.325 33.292-33.393 74.617-59.208 101.746zm602.382-309.431s.303-73.506-35.566-76.689c-35.868-3.132-54.056 18.137-51.025 57.593 3.082 39.506 58.654 100.431 81.286 79.061 11.115-10.457 5.305-59.965 5.305-59.965zm274.937 451.24c-27.937-2.375-52.945-14.55-60.018-38.143-18.894-63.755.353-96.34 52.035-108.465 51.782-12.124 28.291-116.548 63.048-103.665 7.679 2.829 13.893 13.59 18.743 28.543-5.759 77.093-30.261 153.478-73.808 221.73z"/></g><path opacity=".2" d="M799.323 117.384c202.227 174.443 224.757 479.68 50.369 681.909-121.146 140.443-305.34 194.145-474.377 155.447 266.59 14.247 479.227-347.169 333.782-605.625C525.763 23.316 178.594 108.138 178.594 108.138c178.434-145.192 440.477-146.202 620.729 9.246z" fill="#000"/><path opacity=".8" d="M100.289 264.696c-47.438 88.358-143.323 330.698 78.659 553.437 21.572 21.673 57.138 20.058 76.537-3.535l9.396-11.418c17.075-20.713 15.459-51.125-3.788-69.817-57.037-55.419-152.115-190.508-66.737-426.585 10.457-28.947-6.516-60.624-36.474-67.848-22.835-5.506-46.479 5.103-57.593 25.766z" fill="url(#A)"/></g><defs><linearGradient id="A" x1="-272.627" y1="656.93" x2="191.006" y2="532.687" gradientUnits="userSpaceOnUse"><stop stop-color="#fff"/><stop offset="1" stop-color="#fff" stop-opacity="0"/></linearGradient></defs></svg>

<svg width="968" height="967" viewBox="0 0 968 967" fill="none" xmlns="http://www.w3.org/2000/svg">
<g opacity="0.9">
<path d="M375.354 954.791L375.152 954.842C300.939 937.817 229.505 903.008 167.72 849.71C159.334 842.486 151.251 835.009 143.521 827.381C78.5536 763.221 35.3091 684.513 14.3941 600.954C-22.2323 453.69 10.6561 291.473 117.454 167.801C136.348 145.724 156.858 125.871 178.582 108.189C217.785 76.2103 260.928 51.4047 306.446 33.6219C359.188 12.8585 414.861 1.69397 470.887 0.22891C586.98 -2.90328 704.487 35.5932 799.362 117.384C904.19 207.712 960.67 333.303 966.581 461.369C966.682 461.47 966.683 461.47 966.683 461.571C967.592 481.375 967.237 501.127 965.671 520.931C959.862 598.074 935.41 674.459 891.812 742.711C879.384 762.312 865.392 781.156 849.781 799.292C820.278 833.443 787.035 862.491 751.217 886.337C639.822 960.398 503.168 984.092 375.354 954.791Z" fill="#FD4A26"/>
<path d="M882.378 379.983C810.539 388.369 765.93 394.229 744.055 335.93C722.231 277.63 769.517 269.547 764.263 217.613C759.009 165.679 673.177 221.857 670.196 172.55C667.165 123.243 636.298 88.6884 591.892 89.6482C548.092 90.6081 431.291 80.6051 470.797 0.22891C586.89 -2.90328 704.397 35.5932 799.272 117.384C904.1 207.712 960.58 333.303 966.491 461.369C959.267 433.129 937.343 373.567 882.378 379.983Z" fill="#E72E27"/>
<path d="M716.246 570.387C716.246 570.387 700.333 528.153 670.324 535.276C640.265 542.45 625.918 575.49 631.323 607.014C636.729 638.589 743.072 618.532 716.246 570.387Z" fill="#E72E27"/>
<path d="M375.395 954.792L375.193 954.843C300.98 937.818 229.547 903.009 167.761 849.711C159.375 842.487 151.292 835.011 143.562 827.383C156.495 818.693 170.944 809.499 186.1 799.951C243.187 764.183 319.823 859.21 364.23 836.931C408.636 814.652 406.515 709.926 452.689 704.217C498.965 698.509 521.244 687.293 569.036 701.337C616.827 715.331 572.471 791.564 650.877 773.933C729.182 756.301 767.678 709.016 779.651 759.081C786.37 787.321 768.234 843.195 751.158 886.389C639.864 960.4 503.209 984.094 375.395 954.792Z" fill="#E72E27"/>
<path d="M14.3941 600.954C-22.2323 453.69 10.6561 291.472 117.454 167.801C136.348 145.724 156.858 125.871 178.582 108.189C217.785 76.2102 260.928 51.4046 306.446 33.6218C311.246 61.8116 315.136 105.41 311.902 168.711C305.183 300.516 406.373 257.119 437.846 312.185C469.269 367.302 477.655 402.362 480.08 448.284C482.606 494.307 413.546 424.389 365.098 473.291C316.65 522.194 349.893 572.562 301.243 586.203C252.694 599.893 142.158 599.943 139.228 555.587C136.247 511.181 217.532 485.72 150.644 425.905C83.7566 366.09 135.791 349.367 145.188 317.54C154.585 285.713 192.424 226.505 139.328 217.311C86.1816 208.116 92.6985 301.476 62.2354 369.071C31.7723 436.716 87.3438 436.665 73.6026 499.208C66.2773 532.5 40.2095 573.825 14.3941 600.954Z" fill="#E72E27"/>
<path d="M616.776 291.523C616.776 291.523 617.079 218.017 581.21 214.834C545.342 211.702 527.154 232.971 530.185 272.427C533.267 311.933 588.839 372.858 611.471 351.488C622.586 341.031 616.776 291.523 616.776 291.523Z" fill="#E72E27"/>
<path d="M891.713 742.763C863.776 740.388 838.768 728.213 831.695 704.62C812.801 640.865 832.048 608.28 883.73 596.155C935.512 584.031 912.021 479.607 946.778 492.49C954.457 495.319 960.671 506.08 965.521 521.033C959.762 598.126 935.26 674.511 891.713 742.763Z" fill="#E72E27"/>
<path opacity="0.2" d="M799.323 117.384C1001.55 291.827 1024.08 597.064 849.692 799.293C728.546 939.736 544.352 993.438 375.315 954.74C641.905 968.987 854.542 607.571 709.097 349.115C525.763 23.316 178.594 108.138 178.594 108.138C357.028 -37.054 619.071 -38.0637 799.323 117.384Z" fill="black"/>
<path opacity="0.8" d="M100.289 264.696C52.8514 353.054 -43.0339 595.394 178.948 818.133C200.52 839.806 236.086 838.191 255.485 814.598L264.881 803.18C281.956 782.467 280.34 752.055 261.093 733.363C204.056 677.944 108.978 542.855 194.356 306.778C204.813 277.831 187.84 246.154 157.882 238.93C135.047 233.424 111.403 244.033 100.289 264.696Z" fill="url(#paint0_linear_142_9646)"/>
</g>
<defs>
<linearGradient id="paint0_linear_142_9646" x1="-272.627" y1="656.93" x2="191.006" y2="532.687" gradientUnits="userSpaceOnUse">
<stop stop-color="white"/>
<stop offset="1" stop-color="white" stop-opacity="0"/>
</linearGradient>
</defs>
</svg>
